packages/core/src/svgs/tokens/mono/USDC.svg

<svg width="24" height="24" viewBox="0 0 24 24" fill="none" xmlns="http://www.w3.org/2000/svg">
<path fill-rule="evenodd" clip-rule="evenodd" d="M11.9999 22C17.5436 22 22 17.5436 22 11.9999C22 6.45623 17.5436 2 11.9999 2C6.45623 2 2 6.45623 2 11.9999C2 17.5436 6.45623 22 11.9999 22ZM14.7503 13.5806C14.7503 12.1245 13.8753 11.6244 12.1253 11.4182C10.8754 11.2495 10.6255 10.9182 10.6255 10.3307C10.6255 9.74946 11.0441 9.37452 11.8754 9.37452C12.6254 9.37452 13.0441 9.62448 13.2504 10.2495C13.2942 10.3745 13.4192 10.4557 13.5442 10.4557H14.2067C14.3754 10.4557 14.5004 10.3307 14.5004 10.1681V10.1244C14.3317 9.20564 13.5816 8.33072 12.6254 8.24946V7.33072C12.6254 7.16197 12.5004 7.03696 12.2942 6.99947H11.7441C11.5754 6.99947 11.4192 7.12446 11.3755 7.33072V8.24946C10.1254 8.41822 9.29415 9.37452 9.29415 10.4182C9.29415 11.7932 10.1254 12.3307 11.8754 12.5432C13.0441 12.7494 13.4192 12.9995 13.4192 13.6681C13.4192 14.3306 12.8316 14.7932 12.0441 14.7932C10.9566 14.7932 10.5817 14.3306 10.4567 13.7058C10.4191 13.5432 10.2941 13.4557 10.1691 13.4557H9.45661C9.29415 13.4557 9.16917 13.5806 9.16917 13.7495V13.7933C9.33163 14.8307 10.0004 15.5432 11.3755 15.7495V16.6745C11.3755 16.8432 11.5005 16.9556 11.7067 16.9994H12.3066C12.4692 16.9994 12.5817 16.887 12.6254 16.6745V15.7495C13.8753 15.5432 14.7503 14.7057 14.7503 13.5806ZM7.79213 16.694C8.39642 17.248 9.10442 17.6768 9.87529 17.9555C10.0004 18.043 10.1254 18.2056 10.1254 18.3306V18.918C10.1254 18.9993 10.1254 19.0431 10.0816 19.0806C10.0442 19.2493 9.87529 19.3305 9.70657 19.2493C8.18992 18.7666 6.86609 17.814 5.92665 16.5292C4.98721 15.2444 4.48086 13.6941 4.48086 12.1025C4.48086 10.5108 4.98721 8.96044 5.92665 7.67564C6.86609 6.39084 8.18992 5.43821 9.70657 4.95558C9.75032 4.91807 9.83154 4.91807 9.87529 4.91807C10.0442 4.95558 10.1254 5.08057 10.1254 5.24933V5.83058C10.1254 6.04307 10.0442 6.16808 9.87529 6.24932C8.16911 6.87432 6.79411 8.20557 6.16911 9.95552C5.88332 10.7239 5.75259 11.5413 5.78444 12.3604C5.81629 13.1796 6.01011 13.9843 6.35471 14.728C6.69932 15.4719 7.18786 16.1401 7.79213 16.694ZM13.9191 5.12432C13.9566 4.95558 14.1253 4.87432 14.294 4.95558C15.4397 5.32794 16.4798 5.96856 17.3276 6.82414C18.1757 7.67969 18.807 8.72545 19.1691 9.87429C20.419 13.8306 18.2503 18.043 14.294 19.293C14.2503 19.3305 14.1691 19.3305 14.1253 19.3305C13.9566 19.293 13.8753 19.1681 13.8753 18.9993V18.4181C13.8753 18.2056 13.9566 18.0806 14.1253 17.9992C15.8315 17.3743 17.2066 16.043 17.8316 14.293C18.1173 13.5248 18.2481 12.7074 18.2162 11.8882C18.1844 11.0691 17.9906 10.2644 17.646 9.5205C17.3014 8.77671 16.8129 8.10852 16.2085 7.55457C15.6043 7.00061 14.8963 6.57186 14.1253 6.29307C14.0003 6.20557 13.8753 6.04307 13.8753 5.87433V5.29308C13.8753 5.20558 13.8753 5.16807 13.9191 5.12432Z" fill="white"/>
</svg>

<svg xmlns="http://www.w3.org/2000/svg" width="24" height="24" fill="none" viewBox="0 0 24 24">
    <path fill="#fff" fill-rule="evenodd" d="M12 22c5.544 0 10-4.456 10-10S17.544 2 12 2 2 6.456 2 12s4.456 10 10 10m2.75-8.42c0-1.456-.875-1.956-2.625-2.162-1.25-.168-1.5-.5-1.5-1.087 0-.582.42-.956 1.25-.956.75 0 1.17.25 1.375.874a.32.32 0 0 0 .294.207h.663a.284.284 0 0 0 .293-.288v-.044c-.168-.918-.918-1.793-1.875-1.875v-.918c0-.169-.125-.294-.33-.332h-.55c-.17 0-.326.125-.37.332v.918c-1.25.17-2.08 1.126-2.08 2.17 0 1.374.83 1.912 2.58 2.124 1.17.206 1.544.457 1.544 1.125 0 .663-.587 1.125-1.375 1.125-1.087 0-1.462-.462-1.587-1.087-.038-.163-.163-.25-.288-.25h-.712a.284.284 0 0 0-.288.293v.044c.163 1.038.831 1.75 2.207 1.957v.924c0 .17.125.282.33.325h.6c.163 0 .276-.112.32-.325v-.925c1.25-.206 2.124-1.043 2.124-2.168m-6.958 3.114a6.2 6.2 0 0 0 2.083 1.262c.125.087.25.25.25.375v.587c0 .081 0 .125-.043.163-.038.168-.207.25-.375.168a7.5 7.5 0 0 1 0-14.293c.043-.038.125-.038.168-.038.17.038.25.163.25.331v.582c0 .212-.08.337-.25.418a6.17 6.17 0 0 0-3.706 3.707 6.21 6.21 0 0 0 1.623 6.738m6.127-11.57c.038-.168.206-.25.375-.168a7.56 7.56 0 0 1 4.875 4.918c1.25 3.957-.919 8.169-4.875 9.419-.044.038-.125.038-.169.038-.168-.038-.25-.163-.25-.332v-.58c0-.213.082-.338.25-.42 1.707-.625 3.082-1.956 3.707-3.706a6.206 6.206 0 0 0-3.707-8c-.125-.087-.25-.25-.25-.419v-.58c0-.088 0-.126.044-.17" clip-rule="evenodd"/>
</svg>
